X:1
T:Hugo Distler 1908 - 1942
T:Fürwahr, er trug unsere Krankheit
%%score [ ( 1 2 ) 3 4 ( 5 6 ) ]
L:1/8
Q:1/4=120
M:2/2
K:C
V:1 treble nm="Sopran"
V:2 treble 
V:3 treble nm="Alt"
V:4 treble-8 nm="Tenor"
V:5 bass nm="Bass"
V:6 bass 
V:1
"^nicht zu langsam" z4 |S z4"^(ruhig)" A4 | _B8 | z4 A4 | _B8 | z4 A4 | _B8 | %7
w: |Für-|wahr,|für-|wahr,|für-|wahr,|
[M:2/2] z2 _B2 B2 B3 x | _B B2 (_A2 _G2 A2 | F4) _B2 z4 x4 | d4 _e8 | z4 d4 | _e8 | z4 d4 | ^d8 | %15
w: er trur un-|se- re Kran- * *|* heit|und lud,|und|lud,|und|lud|
 z2 ^G2 G2 E3 | E ^F2 ^G8 x4 | x4- x8 | x2 x2 z4 | z8 | z4 z"^(gesteigert)" !courtesy!=G2 G x | %21
w: auf sich un-|se- re Schmer-|zen|||der ge-|
 (_B2 A3)"^," A2 A | (c2 !courtesy!=B3)"^," B d3 | d^ccc c e4 | e2 ^D2 D2 | z4 c4 | _d8 | z4 c4 | %28
w: plagt, * der ge-|plagt, * von Gott|ge- schla- gen und ge- mar-|tert wä- re.|Für-|wahr,|für-|
 _d8 | z4 c4 | _d8 | z2 ^c2 c2 c3 x | ^c c2 (B2 A2 B2 | ^G4) ^c2 | z4 f4 | _g8 | z4 f4 | _g8 | %38
w: wahr,|für-|wahr|er trug un-|se- re Krank * *|* heit|und|lud,|und|lud,|
 z4 f4 | ^f8 | z2 B2 B2 G3 | G A2 B8 x4 |[M:3/2] x4- x4 |[M:3/2] B8 | c4"^," A8 | _B4"^," G8 | %46
w: und|lud|auf sich un-|se- re Schmer-|zen|Für-|wahr, für-|wahr, für-|
 _A4"^," F6 F2 | _G4 _A4 F16 | F4"^," d8 | _d4"^," c8 | x12 | _c4"^," _B8 | A4"^," A6 A2 | %53
w: wahr, er trug|uns- re Krank-|heit. Für-|wahr, für-||wahr, für-|wahr, er trug|
 A4 G4 (^F4 x4 | E4 ^F8) x12 | ^G4 e8 | g4 d8 | f4 c8 | _e4 _B6 B2 | _B4 _A4 (G4 x4 | F4 G8) x12 | %61
w: uns- re Krank-||heit. Für-|wahr, für-|wahr, für-|wahr, er trug|uns- re Krank-||
[M:4/2] F8"^," F4 F4 x8 | F16 | F16 |[M:3/4]"^Sprechrhytmus; also ja nicht zu langsam" A2 A2 A2 | %65
w: heit, uns- re|Krank-|heit|A- ber um|
 _B2 A^G f4 | d2 _B2 _A4 | A3 A A2 | !courtesy!=B2 ^G4 | G2 z ^F F2 | ^G2 ^E4 | E2 z2 A2 | B2 x4 | %73
w: un- se- rer Mis-|se- tat wil-|len ward er|ver- wun-|det, ward er|ver- wun-|det und|um|
 c3 B A2 x2 | ^G2 A2"^," B2 x2 | c3 B A2 | ^G2 A2"^," B2 | c3 B A2 | f2 e2 ^d4 | ^d2 e2 x2 | %80
w: un- se- rer|Sün- de, um|un- se- rer|Sün- de, um|un- se- rer|Sün- de wil-|len zer-|
 e4 e4 | z4 z2 | e2 e4 x2 | e4 z8 | e2 e4 | e4 z2 | z2 z2 E2 x2 | B4 B4 | z2 z2 z8 | z8 | z6 | %91
w: schla- gen,||zer- schla-|gen,|zer- schla-|gen,|zer-|schla- gen,||||
 z d d2 e2 x4 | ^c4 =c2 | z B B2 ^c2 | ^A4 =A2 | z2 d2 e2 x2 | f3 e d2 x2 | ^c2"^(   )" a2 z2 x | %98
w: ward er ver-|wun- det,|ward er ver-|wun- det|und um|un- se- rer|Sün- de.|
 z8 | z8 | z8 | z6 | z6 | z6 | z6 | c2 c2 c2 x2 | _d2 c!courtesy!=B _a4 | f2 _d2 _c4 | c3 c c2 | %109
w: |||||||A- ber um|un- se- rer Mis-|se- tat wil-|len ward er|
 !courtesy!=d2 B4 | _B2 z A A2 x4 | !courtesy!=B2 ^G4 | G2 x6 | z2 c2 d2 | _e3 d c2 x2 | %115
w: ver- wun-|det, ward er|ver- wun-|det|und um|un- se- rer|
 B2 c2"^," d2 x2 | _e3 d c2 x6 | B2 c2"^," d2 x4 | _e3 d c2 x2 | _a2 g2 ^f4 | ^f2 g2 g4 | %121
w: Sün- de, um|un- se- rer|Sün- de, um|un- se- rer|Sün- de wil-|len zer- schla-|
 g4 z2 x2 | z2 z2"^(zurückhaltend)" e2 x4 | d2 f4 x3 | z2 x6 | x6 | x6 | x4 x2 x6 | c2 d4 x4 | %129
w: gen.|liegt|auf ihm,||||||
 e6 x2 |[M:2/2] x8 |] %131
w: ten.||
V:2
 x4 | x8 | x8 | x8 | x8 | x8 | x8 |[M:2/2] x10 | x9 | x14 | x12 | x8 | x8 | x8 | x8 | x9 | x15 | %17
w: |||||||||||||||||
 x12 | x8 | x8 | x9 | x8 | x9 | x9 | x6 | x8 | x8 | x8 | x8 | x8 | x8 | x4 x2 x x x2 | x9 | x6 | %34
w: |||||||||||||||||
 x8 | x8 | x8 | x8 | x8 | x8 | x4 x2 x x x | x4 x2 x x x7 |[M:3/2] x8 |[M:3/2] x8 | x12 | x12 | %46
w: ||||||||||||
 x12 | x8 x16 | x12 | x12 | x12 | x12 | x12 | x16 | x24 | x12 | x12 | x12 | x12 | x16 | x24 | %61
w: |||||||||||||||
[M:4/2] x24 | x16 | x16 |[M:3/4] x6 | x2 x2 x x x2 | x8 | x2 x2 x x | x6 | x6 | x6 | x6 | x6 | x8 | %74
w: |||||||||||||
 x8 | x6 | x6 | x6 | x8 | x6 | x8 | x6 | x8 | x12 | x6 | x6 | x8 | x8 | x12 | x8 | x6 | x10 | x6 | %93
w: |||||||||||||||||||
 x6 | x6 | x8 | x8 | x7 | x8 | x8 | x8 | x6 | x6 | x6 | x6 | x8 | x8 | x8 | x6 | x6 | x10 | x6 | %112
w: |||||||||||||||||||
 x8 | x6 | x8 | x8 | x12 | x10 | x8 | x8 | x8 | x8 | x10 | x9 | x8 | z2 e3 e | e2 f2 e2 | %127
w: |||||||||||||auf daß|wir Frie- den|
 (e4 d2 x6 | c2 d8) | ^c2 x6 |[M:2/2] x8 |] %131
w: hät- *||ten.||
V:3
"^(ruhig)" A,4 | _B,8 | z4 A,4 | _B,8 | z4 A,4 | _B,6 B,2 | _B,2 B,3 B, B,2 |[M:2/2] (_A4 _G6 | %8
w: Für-|wahr,|für-|wahr,|für-|wahr, er|trug un- se- re|Krank- *|
 _E2 _D2 _C2 E2) x | _E2"^," !courtesy!=D4 E8 | z4 D4 x4 | _E8 | z4 D4 | ^D6 D2 | ^D2 D3 D D2 | %15
w: |heit und lud,|und|lud,|und|lud auf|sich un- se- re|
 (^c6 B3 | ^G ^F2 ^C4) ^D8 |"^(gesteigert)""^," E4 E2 E2 x4 | E2 E2 !courtesy!=F4 | B6 B2 | %20
w: Schmer- *|* * * zen.|Wir a- ber|hiel- ten ihn,|ihn für|
 E E2 E (G2 ^F3) |"^," ^F2 F (A2 ^G3) |"^," ^G B3 B_BBB x | _B _d4 d2 C2 | C2"^," C4 | _D8 | %26
w: den der ge- plagt, *|der ge- plagt, *|von Gott ge- schla- gen und|ge- mar- tert wä-|re. Für-|wahr,|
 z4 C4 | _D8 | z4 C4 | _D6"^," ^C2 | ^C2 C3 C C2 | (B4 A6 | ^F2 E2 D2 F2) x | ^F2"^," =F4 | _G8 | %35
w: für-|wahr,|für-|wahr, er|trug un- se- re|Krank- *||heit und|lud,|
 z4 F4 | _G8 | z4 F4 | ^F6 F2 | ^F2 F3 F F2 | (e6 d3 | B A2 E4) x8- | x4 x4 |[M:3/2] ^G8 | %44
w: und|lud,|und|lud auf|sich un- se- re|Schmer- *|* * * zen.||Für-|
 !courtesy!=G4"^," ^F8 | F4"^," E8 | _E4"^," E6 E2 | _E4 _D4 (C4 x12 | _B,4 C8) | %49
w: wahr, für-|wahr, für-|wahr, er trug|uns- re Krank-||
 !courtesy!=D4"^," _B8 | _d4"^," _A8 | _c4"^," ^F8 | !courtesy!=A4"^," E6 E2 | E4 D4 (^C4 x4 | %54
w: heit. Für-|wahr, für-|wahr, für-|wahr, er trug|uns- re Krank-|
 B,4 ^C8) x12 | B,4 ^G8 | !courtesy!=G4 ^F8 | !courtesy!=F4 E8 | _E4 !courtesy!_E6 E2 | %59
w: |heit. Für-|wahr, für-|wahr, für-|wahr, er trug|
 _E4 _D4 (C4 x4 | _B,4 C8) x12 |[M:4/2] D8"^," D4 D4 x8 | C16 | (C16 |[M:3/4] z6 | z8 | z8 | z6 | %68
w: uns- re Krank-||heit, uns- re|Krank-|heit|||||
 z6 | z6 | z6 | z6 | E2 E2 E2 | F2 E^D c4 | A2 F2 _E4 | E3 E E2 | ^F2 ^D4 | D2 z ^C C2 | %78
w: ||||A- ber um|un- se- rer Mis-|se- tat wil-|len ward er|ver- wun-|det, ward er|
 ^D2 ^B,4 x2 | B,2 x4 | z2 E2 ^F2 x2 | G3 ^F E2 | ^D2 E2"^," ^F2 x2 | G3 ^F E2 x4 | %84
w: ver- wun-|det,|und um|un- se- rer|Sün- de, um|un- se- rer|
 ^D2 E2"^," ^F2 | G3 ^F E2 | c2 B2 ^A4 | ^A2 B2 x4 | B4 B4 x2 | z2 z2 z2 x2 | B2 B4 | B4 z8 | %92
w: Sün- de, um|un- se- rer|Sün- de wil-|len zer-|schla- gen,||zer- schla-|gen,|
 B2 B4 | B4 z2 | z2 z2 B,2 | ^F4 F4 | z2 z2 z2 x2 | z2 D2 !courtesy!=F3 | E D2 x5 | ^C2 A2 z2 x2 | %100
w: zer- schla-|gen|zer-|schla- gen,||um un-|se- rer|Sün- de.|
 z8 | z6 | z6 | z6 | z6 | z8 | z8 | z8 | z6 | z6 | z8 x2 | z6 | z8 | z6 | G2 G2 G2 x2 | %115
w: ||||||||||||||A- ber um|
 _A2 G^F _e4 | c2 _A2 _G4 x4 | G3 G G2 x4 | A2 ^F4 x2 | F2 x6 | z E E2 ^F2 x2 | ^D4 =D2 x2 | %122
w: un- se- rer Mis-|se- tat wil-|len ward er|ver- wun-|det,|ward er ver-|wun- det|
"^(zurückhaltend)" z2 D2 D3 x3 | D D2 D2 _A4 | z2 z2 d3 x | d x5 | d2 d2 c2 | B6 x6 | A4 G2 x4 | %129
w: Die Stra-|fe liegt auf ihm,|auf|daß|wir Frie- den|hät-||
 F2 G2 E4) | A2 A,2 x4 |] %131
w: |ten. Für-|
V:4
 z4 | z4"^(ruhig)" D4 | _E8 | z4 D4 | _E8 | z4 D4 | _E8 |[M:2/2][K:treble-8] z2 _B2 B2 B3 x | %8
w: |Für-|wahr,|für-|wahr,|für-|wahr|er trug un-|
 _B B2 _e6 | f6 z4 x4 | G4 _A8 | z4 G4 | _A8 | z4 G4 | ^G8 | z2 ^d2 d2 d3 | ^c B2 c8 x4 | x4- x8 | %18
w: se- re Krank-|heit|und lud,|und|lud,|und|lud|auf sich un-|se- re Schmer-|zen|
 x2 x2 z4 | z8 | z4"^(gesteigert)" B4 x | _B2 _d2"^," d4 | c2 _e2 ed f3 | ffff !courtesy!=e g4 | %24
w: ||...der|ge- plagt, der|ge- plagt und von Gott|ge- schla- gen und ge- mar-|
 g2 G2 G2 | z4 F4 | _G8 | z4 F4 | _G8 | z4 F4 | ^F8 | z2 ^c2 c2 c3 x | ^c c2 ^f6 | ^g6 | z4 _B4 | %35
w: tert wä- re.|Für-|wahr,|für-|wahr,|für-|wahr|er trug un-|se- re Krank-|heit|und|
 _c8 | z4 _B4 | _c8 | z4 _B4 | !courtesy!=B8 | z2 ^f2 f2 f3 | e d2 e12 | ^d4 x4 |[M:3/2] x8 | %44
w: lud,|und|lud,|und|lud|auf sich un-|se- re Schmer-|zen.||
[M:3/2][K:treble-8] e8 x4 | g4"^," d8 | f4"^," c8 | _e4"^," _B6 B2 x12 | _B4 _A4 (G4 | F4 G8) | %50
w: Für-|wahr, für-|wahr, für-|wahr, er trug|uns- re Krank-||
 F4"^," f8 | _g4"^," _e8 | _f4"^," _d8 | !courtesy!=d4"^," B6 B2 x4 | c4 d4 B16 | B4 B8 | c4 A8 | %57
w: heit. Für-|wahr, für-|wahr, für-|wahr, er trug|uns- re Krank-|heit. Für-|wahr, für-|
 _B4 G8 | _A4 F6 F2 | x16 | _G4 _A4 F16 |[M:4/2] F8"^," F4 F4 x8 | G16 | (A16 |[M:3/4] x6 | %65
w: wahr, für-|wahr, er trug||uns- re Krank-|heit, uns- re|Krank-|heit||
[M:3/4][K:treble-8] z8 | z8 | z6 | z6 | z6 | z6 | z6 | z6 | z8 | z8 | z6 | z6 | z6 | z8 | z6 | z8 | %81
w: ||||||||||||||||
 z2 z2 B2 | c2 B^A g4 | e2 c2 _B4 x2 | B3 B B2 | ^c2 ^A4 | A2 z ^G G2 x2 | ^A2 ^^F4 x2 | ^F2 x8 | %89
w: Um|un- se- rer Mis-|se- tat wil-|len ward er|ver- wun-|det, ward er|ver- wun-|det|
 z2 B2 ^c2 x2 | d3 ^c B2 | ^A2 B2"^," ^c2 x4 | d3 ^c B2 | ^A2 B2"^," ^c2 | d3 ^c B2 | g2 ^f2 ^e4 | %96
w: und um|un- se- rer|Sün- de, um|un- se- rer|Sün- de um|un- se- rer|Sün- de wil-|
 ^e2 ^f2 f4 | ^f4 z2 x | z2 z8 | z2 z2 _B2 x2 | _d3 c _B2 x2 | A2 _B2"^," c2 | _d3 c _B2 | %103
w: len zer- schla-|gen.||Um|un- se- rer|Sün- de, um|un- se- rer|
 A2 _B2"^," c2 | _d2 c3 _B | _g2 f2 e4 | e2 f2 x4 | f4 f4 | z2 z2 z2 | f2 f4 | f4 z8 | f2 f4 | %112
w: Sün- de, um|un- se- rer|Sün- de wil-|len zer-|schla- gen,||zer- schla-|gen,|zer- schla-|
 f4 z2 x2 | z2 z2 F2 | c4 c4 | G4 _A4 | G2 ^F2 _e8 | c4 _A4 x2 | ^F8 | G4"^(zurückhaltend)" z2 x2 | %120
w: gen,|zer-|schla- gen,|um un-|se- rer Mis-|se- tat|wil-|len|
 _B2 B3 B x2 | _B2 _A2 _c4 | z2 z2 _B3 x3 | _B x8 | _B2 e6 | e2 !courtesy!=B4 | c2 B3 A | %127
w: Die Stra- fe|liegt auf ihm,|auf|daß|wir Frie-|den hät-||
 G2 A4) x6 | A4 x6 | x8 | x8 |] %131
w: |ten.|||
V:5
 z4 | z4"^(ruhig)" G,,4 | ^F,,8 | z4 G,,4 | ^F,,8 | z4 G,,4 | ^F,,8 |[M:2/2] z2 _E,2 E,2 E,3 x | %8
w: |Für-|wahr,|für-|wahr,|für-|wahr|er trug un-|
 _E, E,2 _B,,6 | _B,,6 z4 x4 | C,4 !courtesy!=B,,8 | z4 C,4 | B,,8 | z4 C,4 | B,,8 | %15
w: se- re Krank-|heit|und lud,|und|lud,|und|lud|
 z2 ^C,2 C,2 E,3 | E, ^C,2 A,8 x4 | x4- x8 | x2 x2 z4 | z8 | z4"^(gesteigert)" D,4 x | %21
w: auf sich un-|se- re Schmer-|zen|||...der|
 _E,2 ^F,,2"^," =E,4 | F,2 ^G,,2 ^F,F, G,3 | G,^A,,A,,^G, G, A,4 | A,2 C,2 C,2 | z4 _B,,4 | A,,8 | %27
w: ge- plagt, der|ge- plagt und von Gott|ge- schla- gen und ge- mar-|tert wä- re.|Für-|wahr,|
 z4 _B,,4 | A,,8 | z4 _B,,4 | A,,8 | z2 ^F,2 F,2 F,3 x | ^F, F,2 ^C,6 | ^C,6 | z4 _E,4 | D,8 | %36
w: für-|wahr,|für-|wahr|er trug un-|se- re Krank-|heit|und|lud,|
 z4 _E,4 | D,8 | z4 _E,4 | D,8 | z2 !courtesy!=E,2 E,2 G,3 | G, E,2 [C,C]8 x4 | x4- x4 | %43
w: und|lud,|und|lud|auf sich un-|se- re Schmer-|zen.|
[M:3/2] E,8 | _E,4"^," D,8 | _D,4"^," C,8 | _C,4"^," _B,,6 B,,2 | _B,,8 B,,8 x8 | _A,,8 _B,,4 | %49
w: Für-|wahr, für-|wahr, für-|wahr, er trug|uns- re|Krank- heit.|
"^," _B,8 A,4 |"^," _A,8 x4 | G,4"^," _G,8 | F,4"^," E,6 E,2 | E,8 E,8 | D,8 E,4 x12 | E,8 _E,4 | %56
w: Für- wahr,|für-|wahr, für-|wahr, er trug|uns- re|Krank- heit.|Für- wahr,|
 D,8 _D,4 | C,8 _C,4 | _B,,6 B,,2 x4 | _B,,8 B,,8 | _A,,8 _B,,8 x8 |"^," _B,,4 B,,4 [F,,F,]16 | %62
w: für- wahr,|für- wahr,|er trug|uns- re|Krank- heit,|uns- re Krank-|
 [F,,F,]16 |[M:3/4] z8 x8 | z6 | z8 | z8 | z6 | z6 | z6 | z6 | z6 | z6 | z8 | z8 | z6 | z6 | z6 | %78
w: heit||||||||||||||||
 z8 | z6 | z8 | z6 | z8 | z8 x2 | z6 | z6 | z8 | z2 z2 ^F,2 x2 | G,2 ^F,^E, D4 x2 | %89
w: |||||||||Um|un- se- rer Mis-|
 B,2 G,2 !courtesy!=F,4 | ^F,3 F, F,2 | ^G,2 ^E,4 x4 | E,2 x4 | z ^D, D,2 ^E,2 | ^^C,4 ^C,2 | %95
w: se- tat wil-|len ward er|ver- wun-|det,|ward er ver-|wun- det|
 z2 ^F,2 ^G,2 x2 | A,3 ^G, ^F,2 x2 | ^E,2 ^C2 z2 x | !courtesy!=F,2 F,2 F,2 x2 | %99
w: und um|un- se- rer|Sün- de.|A- ber um|
 _G,2 F,!courtesy!=E, _D4 | _B,2 _G,2 _F,4 | F,3 F, F,2 | G,2 E,4 | _E,2 z D, D,2 | %104
w: un- se- rer Mis-|se- tat wil-|len ward er|ver- wun-|det, ward er|
 !courtesy!=E,2 ^C,4 | C,2 x6 | z2 F,2 G,2 x2 | _A,3 G, F,2 x2 | E,2 F,2"^," G,2 | _A,3 G, F,2 | %110
w: ver- wun-|det|und um|un- se- rer|Sün- de, um|un- se- rer|
 E,2 F,2"^," G,2 x4 | _A,2 G,3 F, | _D2 C2 !courtesy!=B,4 | B,2 C,2 x2 | C4 C4 | z2 z2 z2 x2 | %116
w: Sün- de um|un- se- rer|Sün- de wil-|len zer-|schla- gen,||
 C,2 C4 x6 | C4 z8 | C,2 C4 x2 | C4 z2 x2 | z2 z2 C,2 x2 | G,4 G,4 | z2 z2 z2 x4 x2 | %123
w: zer- schla-|gen,|zer- schla-|gen,|zer-|schla- gen,||
"^(zurückhaltend)" _A,,2 A,,2 D,4 x | z2 x6 | z2 !courtesy!=A,,3 A,, | A,,2 F,2 G,2 | E,12 | %128
w: liegt auf ihm,||auf daß|wir Frie- den|hät-|
 E,6 x4 |[M:2/2] x8 | x8 |] %131
w: ten.|||
V:6
 x4 | x8 | x8 | x8 | x8 | x8 | x8 |[M:2/2] x10 | x9 | x14 | x12 | x8 | x8 | x8 | x8 | x9 | x15 | %17
 x12 | x8 | x8 | x9 | x8 | x9 | x9 | x6 | x8 | x8 | x8 | x8 | x8 | x8 | x10 | x9 | x6 | x8 | x8 | %36
 x8 | x8 | x8 | x8 | x9 | x15 | x8 |[M:3/2] x8 | x12 | x12 | x12 | x24 | x12 | x12 | x12 | x12 | %52
 x12 | x16 | x24 | x12 | x12 | x12 | x12 | x16 | x24 | x24 | x16 |[M:3/4] x16 | x6 | x8 | x8 | x6 | %68
 x6 | x6 | x6 | x6 | x6 | x8 | x8 | x6 | x6 | x6 | x8 | x6 | x8 | x6 | x8 | x10 | x6 | x6 | x8 | %87
 x8 | x10 | x8 | x6 | x10 | x6 | x6 | x6 | x8 | x8 | x7 | x8 | x8 | x8 | x6 | x6 | x6 | x6 | x8 | %106
 x8 | x8 | x6 | x6 | x10 | x6 | x8 | x6 | x8 | x8 | x12 | x12 | x8 | x8 | x8 | G,,4 G,,4 | %122
 x2 x2 x8 | x8 x | x8 | x2 x2 x2 | A,,2 F,,2 G,,2 | A,,12 | A,,6 x4 |[M:2/2] x8 | x8 |] %131

